build/Karasa-Jaga/scalable/apps/gnome-disks-symbolic.svg

<svg height="16" width="16" xmlns="http://www.w3.org/2000/svg"><g fill="#bebebe"><path d="m2.84375 0c-.8215224-.00137341-1.162371 1.045648-1.15625 1.3125l-.6875 11c.1531649-.670693.6175502-1.157078 1.1875-1.15625h3.9667969c-.0439152-.210953-.0520583-.432507-.0664063-.652344h-3.9765625l.2324219-8.7597654c.0530224-.7154511.2268404-.97988778.4707031-1.10546872h10.4199219c.2535.0240122.623621.42161652.558594 1.11718752l.052734 4.8925781c.348879.3018203.656967.6452217.90625 1.0351563l-.345703-6.2773438c.02502-.3780782-.39306-1.37330616-1.40625-1.375zm5.0976562 1.3925781c-1.991767 0-3.59375 1.4559499-3.59375 3.25 0 1.5257467 1.0852468 2.5000283 2.640625 2.78125.1278744-.1733471.2604376-.3436766.4101563-.4980469-.0336511-.3061481.0395375-.6159864.2890625-.8632812.2371494-.2350166.6190782-.3732707.96875-.375.1822065-.0011394.3546446.0354485.5214844.09375.5027895-.1843389 1.0380556-.3007812 1.6015626-.3007812.179661-.0000001.350712.0328069.525391.0527343.135742-.25416.230468-.5315541.230468-.890625 0-1.7940501-1.6019831-3.25-3.5937498-3.25zm0 2.0625c.7292261 0 1.3125.5306621 1.3125 1.1875 0 .6568375-.6809301.7949219-1.4101562.7949219-.729226 0-1.2148438-.1380844-1.2148438-.7949219 0-.6568379.5832741-1.1875 1.3125-1.1875zm-3.4414062 5.7011719c-.3918317 0-.71875.2720721-.71875.625 0 .352927.3269183.625.71875.625.3918221 0 .71875-.272073.71875-.625 0-.3529279-.3269279-.625-.71875-.625zm6.279297.2480469c-.138382 0-.259979.0405271-.371094.0976562.049664.051393.093855.1048282.154297.1542969.287142.2350814.646647.318615.962891.2714844-.1086-.3093852-.390599-.5234375-.746094-.5234375zm-.740235 1.0996091c.113798.296252.392675.496094.740235.496094.347561 0 .627851-.200087.742187-.496094z"/><path d="m2.5664062 11.779297c-.8098184-.0013-1.4375.692619-1.4375 1.525391v1.115234c0 .832771.6276816 1.524135 1.4375 1.52539l10.7031248.017579-.888672-.933594-9.802734-.015625c-.058017-.00009-.1464844-.030523-.1464844-.234375v-1.115235c0-.203853.0884682-.234465.1464844-.234374l2.2792969.003906 1.25 1.320312.0683593-1.318359 1.1875.001953c-.446001-.470615-.7874906-1.032445-1.0117187-1.652344z"/><g fill-rule="evenodd" transform="matrix(.68203656 0 0 .68203656 6.687614 6.110079)"><path d="m13.054688 11.933594c-.036815.014723-.07224.035282-.103516.060547l-.621094.421875c-.094536.059779-.160017.156485-.179687.263672-.019671.107186.008409.211641.078125.287109l2.886718 3.033203h.884766v-1.443359l-2.619141-2.529297c-.079879-.087743-.203178-.122905-.326171-.09375z" transform="matrix(1.4661971 0 0 1.4661971 -9.80536 -8.95858)"/><path d="m6 1c-2.7548301 0-5 2.2451694-5 5 0 2.7548303 2.2451699 5 5 5 2.75483 0 5-2.2451697 5-5 0-2.7548306-2.24517-5-5-5zm0 1.90625c1.7079289 0 3.09375 1.3858207 3.09375 3.09375 0 1.7079291-1.3858211 3.09375-3.09375 3.09375-1.707929 0-3.09375-1.3858209-3.09375-3.09375 0-1.7079293 1.385821-3.09375 3.09375-3.09375z"/></g></g></svg>

<?xml version="1.0" encoding="UTF-8" standalone="no"?>
<!-- Created with Inkscape (http://www.inkscape.org/) -->

<svg
   xmlns:osb="http://www.openswatchbook.org/uri/2009/osb"
   xmlns:dc="http://purl.org/dc/elements/1.1/"
   xmlns:cc="http://creativecommons.org/ns#"
   xmlns:rdf="http://www.w3.org/1999/02/22-rdf-syntax-ns#"
   xmlns:svg="http://www.w3.org/2000/svg"
   xmlns="http://www.w3.org/2000/svg"
   xmlns:xlink="http://www.w3.org/1999/xlink"
   xmlns:sodipodi="http://sodipodi.sourceforge.net/DTD/sodipodi-0.dtd"
   xmlns:inkscape="http://www.inkscape.org/namespaces/inkscape"
   version="1.1"
   width="16"
   height="16"
   id="svg3808"
   inkscape:version="0.92.2 (unknown)"
   sodipodi:docname="gnome-disks-symbolic.svg">
  <sodipodi:namedview
     pagecolor="#ffffff"
     bordercolor="#666666"
     borderopacity="1"
     objecttolerance="10"
     gridtolerance="10"
     guidetolerance="10"
     inkscape:pageopacity="0"
     inkscape:pageshadow="2"
     inkscape:window-width="1366"
     inkscape:window-height="716"
     id="namedview7"
     showgrid="false"
     showguides="true"
     inkscape:guide-bbox="true"
     inkscape:zoom="5.0946873"
     inkscape:cx="-7.7502347"
     inkscape:cy="-20.304468"
     inkscape:window-x="0"
     inkscape:window-y="27"
     inkscape:window-maximized="1"
     inkscape:current-layer="svg3808"
     inkscape:snap-global="false">
    <inkscape:grid
       type="xygrid"
       id="grid3053" />
  </sodipodi:namedview>
  <defs
     id="defs3810">
    <linearGradient
       inkscape:collect="always"
       xlink:href="#XMLID_19_"
       id="linearGradient12942"
       gradientUnits="userSpaceOnUse"
       gradientTransform="matrix(0,-0.44649484,0.43865775,0,44.314056,98.880451)"
       x1="180.37399"
       y1="-157.96339"
       x2="188.83299"
       y2="-157.96339" />
    <linearGradient
       id="XMLID_19_"
       gradientUnits="userSpaceOnUse"
       x1="180.37399"
       y1="-157.96339"
       x2="188.83299"
       y2="-157.96339"
       gradientTransform="matrix(0,-1.8884098,1.8552635,0,317.52681,460.62003)">
      <stop
         offset="0"
         style="stop-color:#DDDDDD"
         id="stop126" />
      <stop
         offset="0.2738"
         style="stop-color:#BBBBBB"
         id="stop128" />
      <stop
         offset="0.5617"
         style="stop-color:#9F9F9F"
         id="stop130" />
      <stop
         offset="0.8136"
         style="stop-color:#8E8E8E"
         id="stop132" />
      <stop
         offset="1"
         style="stop-color:#888888"
         id="stop134" />
    </linearGradient>
    <linearGradient
       inkscape:collect="always"
       xlink:href="#linearGradient6253-0"
       id="linearGradient12938"
       gradientUnits="userSpaceOnUse"
       gradientTransform="matrix(0.29171261,0,0,0.49647278,-6.3928271,69.131208)"
       x1="-35.539001"
       y1="-144.21001"
       x2="-35.539001"
       y2="-108.32" />
    <linearGradient
       id="linearGradient6253-0">
      <stop
         style="stop-color:#ffffff;stop-opacity:1"
         offset="0"
         id="stop6255-0" />
      <stop
         id="stop6257-8"
         offset="0.64336616"
         style="stop-color:#efefef;stop-opacity:1" />
      <stop
         style="stop-color:#e5e5e5;stop-opacity:1"
         offset="1"
         id="stop6259-5" />
    </linearGradient>
    <linearGradient
       inkscape:collect="always"
       xlink:href="#linearGradient3214"
       id="linearGradient12940"
       gradientUnits="userSpaceOnUse"
       gradientTransform="matrix(0.79749691,0,0,1.368051,-28.610824,-12.086273)"
       x1="7.8513999"
       y1="19.968"
       x2="7.8513999"
       y2="7.0348001" />
    <linearGradient
       x1="7.8513999"
       y1="19.968"
       gradientTransform="matrix(0.64516,0,0,0.97976,0.25806,-6.7257)"
       x2="7.8513999"
       gradientUnits="userSpaceOnUse"
       y2="7.0348001"
       id="linearGradient3214">
      <stop
         offset="0"
         style="stop-color:#848484;stop-opacity:1;"
         id="stop3486" />
      <stop
         offset="1"
         style="stop-color:#bebebe;stop-opacity:1;"
         id="stop3488" />
    </linearGradient>
    <linearGradient
       inkscape:collect="always"
       xlink:href="#linearGradient3217"
       id="linearGradient12936"
       gradientUnits="userSpaceOnUse"
       gradientTransform="matrix(0.86516705,0,0,1.4752569,9.9026508,-95.765287)"
       x1="46.426998"
       y1="101.88"
       x2="46.426998"
       y2="85.788002" />
    <linearGradient
       x1="46.426998"
       y1="101.88"
       gradientTransform="matrix(0.12584,0,0,0.1986,0.13145,-5.1684)"
       x2="46.426998"
       gradientUnits="userSpaceOnUse"
       y2="85.788002"
       id="linearGradient3217">
      <stop
         offset="0"
         style="stop-color:#aaa"
         id="stop2223" />
      <stop
         offset="1"
         style="stop-color:#646464"
         id="stop2219" />
    </linearGradient>
    <linearGradient
       y2="85.788002"
       x2="46.426998"
       y1="101.88"
       x1="46.426998"
       gradientTransform="matrix(0.15555368,0,0,0.26524546,-28.767329,-8.8387032)"
       gradientUnits="userSpaceOnUse"
       id="linearGradient13048"
       xlink:href="#linearGradient3217"
       inkscape:collect="always" />
    <linearGradient
       x1="8.2128801"
       y1="0.95885509"
       x2="8.2128801"
       y2="14.985587"
       id="linearGradient3899"
       xlink:href="#linearGradient3798-3"
       gradientUnits="userSpaceOnUse"
       gradientTransform="matrix(1,0,0,-1,0,16)" />
    <linearGradient
       id="linearGradient3798-3">
      <stop
         id="stop3800-9"
         style="stop-color:#bebebe;stop-opacity:0.69800001"
         offset="0" />
      <stop
         id="stop3802-0"
         style="stop-color:#bebebe;stop-opacity:1"
         offset="1" />
    </linearGradient>
    <radialGradient
       cx="8"
       cy="13.70627"
       r="5.4887881"
       fx="8"
       fy="13.70627"
       id="radialGradient3922"
       xlink:href="#linearGradient3798-3"
       gradientUnits="userSpaceOnUse"
       gradientTransform="matrix(2.0028749,0,0,2.103321,-27.472015,-17.454038)" />
    <linearGradient
       id="linearGradient5606"
       osb:paint="solid">
      <stop
         id="stop5608"
         offset="0"
         style="stop-color:#000000;stop-opacity:1;" />
    </linearGradient>
    <linearGradient
       inkscape:collect="always"
       gradientTransform="matrix(0.08112299,0,0,0.07855526,540.8143,254.8467)"
       gradientUnits="userSpaceOnUse"
       xlink:href="#linearGradient3785"
       id="linearGradient3189"
       x1="365.51193"
       x2="365.97757"
       y1="408.39655"
       y2="520.1709" />
    <linearGradient
       id="linearGradient3785">
      <stop
         id="stop3787"
         offset="0"
         style="stop-color:#384880;stop-opacity:1;" />
      <stop
         id="stop3789"
         offset="1"
         style="stop-color:#000000;stop-opacity:1;" />
    </linearGradient>
    <linearGradient
       x1="8.2128801"
       y1="0.95885509"
       x2="8.2128801"
       y2="14.985587"
       id="linearGradient3899-9"
       xlink:href="#linearGradient3798-3-2"
       gradientUnits="userSpaceOnUse"
       gradientTransform="matrix(1,0,0,-1,0,16)" />
    <linearGradient
       id="linearGradient3798-3-2">
      <stop
         id="stop3800-9-5"
         style="stop-color:#bebebe;stop-opacity:0.69800001"
         offset="0" />
      <stop
         id="stop3802-0-1"
         style="stop-color:#bebebe;stop-opacity:1"
         offset="1" />
    </linearGradient>
    <radialGradient
       cx="8"
       cy="13.70627"
       r="5.4887881"
       fx="8"
       fy="13.70627"
       id="radialGradient3922-0"
       xlink:href="#linearGradient3798-3-2"
       gradientUnits="userSpaceOnUse"
       gradientTransform="matrix(2.0028749,0,0,2.103321,-27.472015,-17.454038)" />
    <linearGradient
       id="linearGradient4980">
      <stop
         id="stop4982"
         offset="0"
         style="stop-color:#595959;stop-opacity:1;" />
      <stop
         id="stop4984"
         offset="1"
         style="stop-color:#707070;stop-opacity:1;" />
    </linearGradient>
    <linearGradient
       id="linearGradient3873">
      <stop
         style="stop-color:#dadada;stop-opacity:1;"
         offset="0"
         id="stop3875" />
      <stop
         style="stop-color:#ffffff;stop-opacity:1;"
         offset="1"
         id="stop3877" />
    </linearGradient>
    <linearGradient
       id="linearGradient3587-6-5-3-5-7">
      <stop
         id="stop3589-9-2-2-6-2"
         style="stop-color:#000000;stop-opacity:1"
         offset="0" />
      <stop
         id="stop3591-7-4-73-5-1"
         style="stop-color:#363636;stop-opacity:1"
         offset="1" />
    </linearGradient>
  </defs>
  <metadata
     id="metadata3813">
    <rdf:RDF>
      <cc:Work
         rdf:about="">
        <dc:format>image/svg+xml</dc:format>
        <dc:type
           rdf:resource="http://purl.org/dc/dcmitype/StillImage" />
        <dc:title></dc:title>
      </cc:Work>
    </rdf:RDF>
  </metadata>
  <path
     style="color:#bebebe;display:inline;overflow:visible;visibility:visible;fill:#bebebe;fill-opacity:1;fill-rule:nonzero;stroke:none;stroke-width:1;marker:none;enable-background:accumulate"
     d="M 2.84375 0 C 2.0222276 -0.00137341 1.681379 1.045648 1.6875 1.3125 L 1 12.3125 C 1.1531649 11.641807 1.6175502 11.155422 2.1875 11.15625 L 6.1542969 11.15625 C 6.1103817 10.945297 6.1022386 10.723743 6.0878906 10.503906 L 2.1113281 10.503906 L 2.34375 1.7441406 C 2.3967724 1.0286895 2.5705904 0.76425282 2.8144531 0.63867188 L 13.234375 0.63867188 C 13.487875 0.66268408 13.857996 1.0602884 13.792969 1.7558594 L 13.845703 6.6484375 C 14.194582 6.9502578 14.50267 7.2936592 14.751953 7.6835938 L 14.40625 1.40625 C 14.43127 1.0281718 14.01319 0.03294384 13 0.03125 L 2.84375 0 z M 7.9414062 1.3925781 C 5.9496392 1.3925781 4.3476562 2.848528 4.3476562 4.6425781 C 4.3476562 6.1683248 5.432903 7.1426064 6.9882812 7.4238281 C 7.1161556 7.250481 7.2487188 7.0801515 7.3984375 6.9257812 C 7.3647864 6.6196331 7.437975 6.3097948 7.6875 6.0625 C 7.9246494 5.8274834 8.3065782 5.6892293 8.65625 5.6875 C 8.8384565 5.6863606 9.0108946 5.7229485 9.1777344 5.78125 C 9.6805239 5.5969111 10.21579 5.4804688 10.779297 5.4804688 C 10.958958 5.4804687 11.130009 5.5132757 11.304688 5.5332031 C 11.44043 5.2790431 11.535156 5.001649 11.535156 4.6425781 C 11.535156 2.848528 9.9331729 1.3925781 7.9414062 1.3925781 z M 7.9414062 3.4550781 C 8.6706323 3.4550781 9.2539062 3.9857402 9.2539062 4.6425781 C 9.2539062 5.2994156 8.5729761 5.4375 7.84375 5.4375 C 7.114524 5.4375 6.6289062 5.2994156 6.6289062 4.6425781 C 6.6289062 3.9857402 7.2121803 3.4550781 7.9414062 3.4550781 z M 4.5 9.15625 C 4.1081683 9.15625 3.78125 9.4283221 3.78125 9.78125 C 3.78125 10.134177 4.1081683 10.40625 4.5 10.40625 C 4.8918221 10.40625 5.21875 10.134177 5.21875 9.78125 C 5.21875 9.4283221 4.8918221 9.15625 4.5 9.15625 z M 10.779297 9.4042969 C 10.640915 9.4042969 10.519318 9.444824 10.408203 9.5019531 C 10.457867 9.5533461 10.502058 9.6067813 10.5625 9.65625 C 10.849642 9.8913314 11.209147 9.974865 11.525391 9.9277344 C 11.416791 9.6183492 11.134792 9.4042969 10.779297 9.4042969 z M 10.039062 10.503906 C 10.15286 10.800158 10.431737 11 10.779297 11 C 11.126858 11 11.407148 10.799913 11.521484 10.503906 L 10.039062 10.503906 z "
     id="path59" />
  <path
     style="fill:#bebebe;fill-opacity:1;stroke:none"
     d="M 2.5664062 11.779297 C 1.7565878 11.777997 1.1289062 12.471916 1.1289062 13.304688 L 1.1289062 14.419922 C 1.1289062 15.252693 1.7565878 15.944057 2.5664062 15.945312 L 13.269531 15.962891 L 12.380859 15.029297 L 2.578125 15.013672 C 2.520108 15.013582 2.4316406 14.983149 2.4316406 14.779297 L 2.4316406 13.664062 C 2.4316406 13.460209 2.5201088 13.429597 2.578125 13.429688 L 4.8574219 13.433594 L 6.1074219 14.753906 L 6.1757812 13.435547 L 7.3632812 13.4375 C 6.9172802 12.966885 6.5757906 12.405055 6.3515625 11.785156 L 2.5664062 11.779297 z "
     id="path3009" />
  <g
     id="g3077"
     transform="translate(-123.60224,-162.61889)" />
  <g
     id="g3077-0"
     transform="translate(-140.51144,126.87462)" />
  <g
     id="layer9"
     inkscape:label="status"
     style="display:inline"
     transform="translate(-429.45429,190.2086)" />
  <g
     id="layer1"
     inkscape:label="places"
     style="display:inline"
     transform="translate(-188.45409,-426.7914)" />
  <g
     id="layer14"
     inkscape:label="mimetypes"
     style="display:inline"
     transform="translate(-429.45429,190.2086)" />
  <g
     id="layer15"
     inkscape:label="emblems"
     style="display:inline"
     transform="translate(-429.45429,190.2086)" />
  <g
     id="g71291"
     inkscape:label="emotes"
     style="display:inline"
     transform="translate(-429.45429,190.2086)" />
  <g
     id="layer2"
     inkscape:label="categories"
     style="display:inline"
     transform="translate(-188.45409,-276.7914)" />
  <g
     id="g6058"
     inkscape:label="apps"
     style="display:inline"
     transform="translate(-188.45409,-276.7914)" />
  <g
     id="layer12"
     inkscape:label="actions"
     style="display:inline"
     transform="translate(-429.45429,190.2086)" />
  <g
     transform="matrix(0.68203656,0,0,0.68203656,6.6876141,6.1100792)"
     id="g3993">
    <path
       style="display:inline;fill:#bebebe;fill-opacity:1;fill-rule:evenodd;stroke:none;stroke-width:0.68203658"
       d="M 13.054688 11.933594 C 13.017873 11.948317 12.982448 11.968876 12.951172 11.994141 L 12.330078 12.416016 C 12.235542 12.475795 12.170061 12.572501 12.150391 12.679688 C 12.13072 12.786874 12.1588 12.891329 12.228516 12.966797 L 15.115234 16 L 16 16 L 16 14.556641 L 13.380859 12.027344 C 13.30098 11.939601 13.177681 11.904439 13.054688 11.933594 z "
       transform="matrix(1.4661971,0,0,1.4661971,-9.8053601,-8.9585802)"
       id="path3220" />
    <path
       inkscape:connector-curvature="0"
       style="fill:#bebebe;fill-opacity:1;fill-rule:evenodd;stroke:none"
       d="M 6,1 C 3.2451699,1 1,3.2451694 1,6 1,8.7548303 3.2451699,11 6,11 8.75483,11 11,8.7548303 11,6 11,3.2451694 8.75483,1 6,1 Z M 6,2.90625 C 7.7079289,2.90625 9.09375,4.2920707 9.09375,6 9.09375,7.7079291 7.7079289,9.09375 6,9.09375 4.292071,9.09375 2.90625,7.7079291 2.90625,6 2.90625,4.2920707 4.292071,2.90625 6,2.90625 Z"
       id="path3753-1" />
  </g>
</svg>
